storage/app/icons/phosphoricons/fill/memory-fill.svg

<svg xmlns="http://www.w3.org/2000/svg" fill="currentColor" viewBox="0 0 256 256"><path d="M232 56H24A16 16 0 0 0 8 72v128a8 8 0 0 0 16 0v-16h16v16a8 8 0 0 0 16 0v-16h16v16a8 8 0 0 0 16 0v-16h16v16a8 8 0 0 0 16 0v-16h16v16a8 8 0 0 0 16 0v-16h16v16a8 8 0 0 0 16 0v-16h16v16a8 8 0 0 0 16 0v-16h16v16a8 8 0 0 0 16 0V72a16 16 0 0 0-16-16m-24 40v48h-64V96Zm-96 0v48H48V96Z"/></svg>

<svg xmlns="http://www.w3.org/2000/svg" viewBox="0 0 256 256" fill="currentColor"><path d="M232,56H24A16,16,0,0,0,8,72V200a8,8,0,0,0,16,0V184H40v16a8,8,0,0,0,16,0V184H72v16a8,8,0,0,0,16,0V184h16v16a8,8,0,0,0,16,0V184h16v16a8,8,0,0,0,16,0V184h16v16a8,8,0,0,0,16,0V184h16v16a8,8,0,0,0,16,0V184h16v16a8,8,0,0,0,16,0V72A16,16,0,0,0,232,56ZM208,96v48H144V96Zm-96,0v48H48V96Z"/></svg>
